images/3246041.svg

<?xml version="1.0" encoding="UTF-8"?>
<svg xmlns="http://www.w3.org/2000/svg" xmlns:xlink="http://www.w3.org/1999/xlink" width="300pt" height="300pt" viewBox="0 0 300 300" version="1.1">
<defs>
<g>
<symbol overflow="visible" id="glyph0-0">
<path style="stroke:none;" d="M 0.59375 2.125 L 0.59375 -8.46875 L 6.59375 -8.46875 L 6.59375 2.125 Z M 1.265625 1.453125 L 5.9375 1.453125 L 5.9375 -7.78125 L 1.265625 -7.78125 Z M 1.265625 1.453125 "/>
</symbol>
<symbol overflow="visible" id="glyph0-1">
<path style="stroke:none;" d="M 1.171875 -8.75 L 2.765625 -8.75 L 6.65625 -1.4375 L 6.65625 -8.75 L 7.796875 -8.75 L 7.796875 0 L 6.203125 0 L 2.328125 -7.3125 L 2.328125 0 L 1.171875 0 Z M 1.171875 -8.75 "/>
</symbol>
</g>
</defs>
<g id="surface44565">
<rect x="0" y="0" width="300" height="300" style="fill:rgb(100%,100%,100%);fill-opacity:1;stroke:none;"/>
<path style="fill:none;stroke-width:1;stroke-linecap:butt;stroke-linejoin:miter;stroke:rgb(0%,0%,0%);stroke-opacity:1;stroke-miterlimit:10;" d="M 123.636719 124.527344 L 123.636719 124.527344 M 124.738281 121.734375 L 123.71875 121.527344 M 125.839844 118.945312 L 123.796875 118.527344 M 126.941406 116.152344 L 123.875 115.527344 M 128.042969 113.363281 L 123.953125 112.53125 M 129.140625 110.570312 L 124.035156 109.53125 M 130.242188 107.78125 L 124.113281 106.53125 M 131.34375 104.992188 L 124.191406 103.535156 M 132.445312 102.199219 L 124.269531 100.535156 M 133.542969 99.410156 L 124.347656 97.535156 M 134.644531 96.617188 L 124.429688 94.535156 M 135.210938 95.179688 L 124.46875 92.992188 "/>
<path style="fill:none;stroke-width:1.2;stroke-linecap:butt;stroke-linejoin:miter;stroke:rgb(0%,0%,0%);stroke-opacity:1;stroke-miterlimit:10;" d="M 123.636719 124.527344 L 146.898438 145.117188 "/>
<path style="fill:none;stroke-width:1.2;stroke-linecap:butt;stroke-linejoin:miter;stroke:rgb(0%,0%,0%);stroke-opacity:1;stroke-miterlimit:10;" d="M 123.636719 124.527344 L 108.90625 129.449219 "/>
<path style="fill:none;stroke-width:1.2;stroke-linecap:butt;stroke-linejoin:miter;stroke:rgb(0%,0%,100%);stroke-opacity:1;stroke-miterlimit:10;" d="M 108.90625 129.449219 L 94.175781 134.375 "/>
<path style="fill:none;stroke-width:1.2;stroke-linecap:butt;stroke-linejoin:miter;stroke:rgb(0%,0%,0%);stroke-opacity:1;stroke-miterlimit:10;" d="M 146.898438 145.117188 L 176.363281 135.269531 "/>
<path style="fill:none;stroke-width:1.2;stroke-linecap:butt;stroke-linejoin:miter;stroke:rgb(0%,0%,0%);stroke-opacity:1;stroke-miterlimit:10;" d="M 176.363281 135.269531 L 166.511719 105.804688 "/>
<path style="fill:none;stroke-width:1.2;stroke-linecap:butt;stroke-linejoin:miter;stroke:rgb(0%,0%,0%);stroke-opacity:1;stroke-miterlimit:10;" d="M 176.363281 135.269531 L 205.824219 125.421875 "/>
<path style="fill:none;stroke-width:1.2;stroke-linecap:butt;stroke-linejoin:miter;stroke:rgb(0%,0%,0%);stroke-opacity:1;stroke-miterlimit:10;" d="M 176.363281 135.269531 L 186.210938 164.730469 "/>
<path style="fill:none;stroke-width:1.2;stroke-linecap:butt;stroke-linejoin:miter;stroke:rgb(0%,0%,0%);stroke-opacity:1;stroke-miterlimit:10;" d="M 166.511719 105.804688 L 161.589844 91.074219 "/>
<path style="fill:none;stroke-width:1.2;stroke-linecap:butt;stroke-linejoin:miter;stroke:rgb(0%,0%,100%);stroke-opacity:1;stroke-miterlimit:10;" d="M 161.589844 91.074219 L 156.664062 76.34375 "/>
<path style="fill:none;stroke-width:1.2;stroke-linecap:butt;stroke-linejoin:miter;stroke:rgb(0%,0%,0%);stroke-opacity:1;stroke-miterlimit:10;" d="M 172.460938 100.542969 L 168.519531 88.757812 "/>
<path style="fill:none;stroke-width:1.2;stroke-linecap:butt;stroke-linejoin:miter;stroke:rgb(0%,0%,100%);stroke-opacity:1;stroke-miterlimit:10;" d="M 168.519531 88.757812 L 164.582031 76.972656 "/>
<path style="fill:none;stroke-width:1.2;stroke-linecap:butt;stroke-linejoin:miter;stroke:rgb(0%,0%,0%);stroke-opacity:1;stroke-miterlimit:10;" d="M 158.597656 105.175781 L 154.65625 93.390625 "/>
<path style="fill:none;stroke-width:1.2;stroke-linecap:butt;stroke-linejoin:miter;stroke:rgb(0%,0%,100%);stroke-opacity:1;stroke-miterlimit:10;" d="M 154.65625 93.390625 L 150.71875 81.605469 "/>
<path style=" stroke:none;fill-rule:nonzero;fill:rgb(100%,100%,100%);fill-opacity:1;" d="M 147.664062 69.34375 L 156.664062 69.34375 L 156.664062 83.34375 L 147.664062 83.34375 Z M 147.664062 69.34375 "/>
<g style="fill:rgb(0%,0%,100%);fill-opacity:1;">
  <use xlink:href="#glyph0-1" x="147.664062" y="80.482422"/>
</g>
<path style="fill:none;stroke-width:1.2;stroke-linecap:butt;stroke-linejoin:miter;stroke:rgb(0%,0%,0%);stroke-opacity:1;stroke-miterlimit:10;" d="M 205.824219 125.421875 L 229.085938 146.011719 "/>
<path style="fill:none;stroke-width:1.2;stroke-linecap:butt;stroke-linejoin:miter;stroke:rgb(0%,0%,0%);stroke-opacity:1;stroke-miterlimit:10;" d="M 212.996094 122.007812 L 231.605469 138.480469 "/>
<path style="fill:none;stroke-width:1.2;stroke-linecap:butt;stroke-linejoin:miter;stroke:rgb(0%,0%,0%);stroke-opacity:1;stroke-miterlimit:10;" d="M 212.027344 94.980469 L 205.824219 125.421875 "/>
<path style="fill:none;stroke-width:1.2;stroke-linecap:butt;stroke-linejoin:miter;stroke:rgb(0%,0%,0%);stroke-opacity:1;stroke-miterlimit:10;" d="M 229.085938 146.011719 L 258.546875 136.164062 "/>
<path style="fill:none;stroke-width:1.2;stroke-linecap:butt;stroke-linejoin:miter;stroke:rgb(0%,0%,0%);stroke-opacity:1;stroke-miterlimit:10;" d="M 258.546875 136.164062 L 264.75 105.722656 "/>
<path style="fill:none;stroke-width:1.2;stroke-linecap:butt;stroke-linejoin:miter;stroke:rgb(0%,0%,0%);stroke-opacity:1;stroke-miterlimit:10;" d="M 252.003906 131.660156 L 256.96875 107.308594 "/>
<path style="fill:none;stroke-width:1.2;stroke-linecap:butt;stroke-linejoin:miter;stroke:rgb(0%,0%,0%);stroke-opacity:1;stroke-miterlimit:10;" d="M 264.75 105.722656 L 241.488281 85.132812 "/>
<path style="fill:none;stroke-width:1.2;stroke-linecap:butt;stroke-linejoin:miter;stroke:rgb(0%,0%,0%);stroke-opacity:1;stroke-miterlimit:10;" d="M 241.488281 85.132812 L 212.027344 94.980469 "/>
<path style="fill:none;stroke-width:1.2;stroke-linecap:butt;stroke-linejoin:miter;stroke:rgb(0%,0%,0%);stroke-opacity:1;stroke-miterlimit:10;" d="M 240.859375 93.046875 L 217.289062 100.925781 "/>
<path style="fill:none;stroke-width:1.2;stroke-linecap:butt;stroke-linejoin:miter;stroke:rgb(0%,0%,0%);stroke-opacity:1;stroke-miterlimit:10;" d="M 186.210938 164.730469 L 165.617188 187.992188 "/>
<path style="fill:none;stroke-width:1.2;stroke-linecap:butt;stroke-linejoin:miter;stroke:rgb(0%,0%,0%);stroke-opacity:1;stroke-miterlimit:10;" d="M 189.625 171.902344 L 173.152344 190.511719 "/>
<path style="fill:none;stroke-width:1.2;stroke-linecap:butt;stroke-linejoin:miter;stroke:rgb(0%,0%,0%);stroke-opacity:1;stroke-miterlimit:10;" d="M 216.648438 170.933594 L 186.210938 164.730469 "/>
<path style="fill:none;stroke-width:1.2;stroke-linecap:butt;stroke-linejoin:miter;stroke:rgb(0%,0%,0%);stroke-opacity:1;stroke-miterlimit:10;" d="M 165.617188 187.992188 L 175.46875 217.453125 "/>
<path style="fill:none;stroke-width:1.2;stroke-linecap:butt;stroke-linejoin:miter;stroke:rgb(0%,0%,0%);stroke-opacity:1;stroke-miterlimit:10;" d="M 175.46875 217.453125 L 205.90625 223.65625 "/>
<path style="fill:none;stroke-width:1.2;stroke-linecap:butt;stroke-linejoin:miter;stroke:rgb(0%,0%,0%);stroke-opacity:1;stroke-miterlimit:10;" d="M 179.972656 210.914062 L 204.324219 215.875 "/>
<path style="fill:none;stroke-width:1.2;stroke-linecap:butt;stroke-linejoin:miter;stroke:rgb(0%,0%,0%);stroke-opacity:1;stroke-miterlimit:10;" d="M 205.90625 223.65625 L 226.5 200.394531 "/>
<path style="fill:none;stroke-width:1.2;stroke-linecap:butt;stroke-linejoin:miter;stroke:rgb(0%,0%,0%);stroke-opacity:1;stroke-miterlimit:10;" d="M 226.5 200.394531 L 216.648438 170.933594 "/>
<path style="fill:none;stroke-width:1.2;stroke-linecap:butt;stroke-linejoin:miter;stroke:rgb(0%,0%,0%);stroke-opacity:1;stroke-miterlimit:10;" d="M 218.582031 199.765625 L 210.703125 176.195312 "/>
<path style="fill:none;stroke-width:1.2;stroke-linecap:butt;stroke-linejoin:miter;stroke:rgb(0%,0%,100%);stroke-opacity:1;stroke-miterlimit:10;" d="M 94.175781 134.375 L 82.546875 124.078125 "/>
<path style="fill:none;stroke-width:1.2;stroke-linecap:butt;stroke-linejoin:miter;stroke:rgb(0%,0%,0%);stroke-opacity:1;stroke-miterlimit:10;" d="M 82.546875 124.078125 L 70.914062 113.785156 "/>
<path style="fill:none;stroke-width:1.2;stroke-linecap:butt;stroke-linejoin:miter;stroke:rgb(0%,0%,0%);stroke-opacity:1;stroke-miterlimit:10;" d="M 87.972656 164.816406 L 91.074219 149.59375 "/>
<path style="fill:none;stroke-width:1.2;stroke-linecap:butt;stroke-linejoin:miter;stroke:rgb(0%,0%,100%);stroke-opacity:1;stroke-miterlimit:10;" d="M 91.074219 149.59375 L 94.175781 134.375 "/>
<path style=" stroke:none;fill-rule:nonzero;fill:rgb(100%,100%,100%);fill-opacity:1;" d="M 90.175781 127.375 L 99.175781 127.375 L 99.175781 141.375 L 90.175781 141.375 Z M 90.175781 127.375 "/>
<g style="fill:rgb(0%,0%,100%);fill-opacity:1;">
  <use xlink:href="#glyph0-1" x="90.175781" y="138.513672"/>
</g>
<path style="fill:none;stroke-width:1.2;stroke-linecap:butt;stroke-linejoin:miter;stroke:rgb(0%,0%,0%);stroke-opacity:1;stroke-miterlimit:10;" d="M 70.914062 113.785156 L 41.453125 123.632812 "/>
<path style="fill:none;stroke-width:1.2;stroke-linecap:butt;stroke-linejoin:miter;stroke:rgb(0%,0%,0%);stroke-opacity:1;stroke-miterlimit:10;" d="M 41.453125 123.632812 L 35.25 154.070312 "/>
<path style="fill:none;stroke-width:1.2;stroke-linecap:butt;stroke-linejoin:miter;stroke:rgb(0%,0%,0%);stroke-opacity:1;stroke-miterlimit:10;" d="M 35.25 154.070312 L 58.511719 174.664062 "/>
<path style="fill:none;stroke-width:1.2;stroke-linecap:butt;stroke-linejoin:miter;stroke:rgb(0%,0%,0%);stroke-opacity:1;stroke-miterlimit:10;" d="M 58.511719 174.664062 L 87.972656 164.816406 "/>
</g>
</svg>

<svg xmlns="http://www.w3.org/2000/svg" xmlns:xlink="http://www.w3.org/1999/xlink" width="300pt" height="300pt" viewBox="0 0 300 300"><defs><symbol overflow="visible"><path d="M.594 2.125V-8.47h6V2.126zm.672-.672h4.671V-7.78h-4.67zm0 0"/></symbol><symbol overflow="visible" id="a"><path d="M1.172-8.75h1.594l3.89 7.313V-8.75h1.14V0H6.204L2.328-7.313V0H1.172zm0 0"/></symbol></defs><g><path fill="#fff" d="M0 0h300v300H0z"/><path d="M123.637 124.527m1.1-2.793l-1.018-.207m2.12-2.582l-2.043-.418m3.144-2.375l-3.065-.625m4.168-2.164l-4.09-.832m5.188-1.96l-5.105-1.04m6.207-1.75l-6.13-1.25m7.232-1.538l-7.153-1.457m8.255-1.336l-8.175-1.665m9.273-1.125l-9.195-1.875m10.297-.918l-10.215-2.082m10.78.645l-10.74-2.188" stroke="#000" stroke-miterlimit="10" fill="none"/><path d="M123.637 124.527l23.26 20.59M123.637 124.527l-14.73 4.922" stroke-width="1.2" stroke="#000" stroke-miterlimit="10" fill="none"/><path d="M108.906 129.45l-14.73 4.925" stroke-width="1.2" stroke="#00f" stroke-miterlimit="10" fill="none"/><path d="M146.898 145.117l29.465-9.847M176.363 135.27l-9.85-29.465M176.363 135.27l29.46-9.848M176.363 135.27l9.848 29.46M166.512 105.805l-4.922-14.73" stroke-width="1.2" stroke="#000" stroke-miterlimit="10" fill="none"/><path d="M161.59 91.074l-4.926-14.73" stroke-width="1.2" stroke="#00f" stroke-miterlimit="10" fill="none"/><path d="M172.46 100.543l-3.94-11.785" stroke-width="1.2" stroke="#000" stroke-miterlimit="10" fill="none"/><path d="M168.52 88.758l-3.938-11.785" stroke-width="1.2" stroke="#00f" stroke-miterlimit="10" fill="none"/><path d="M158.598 105.176l-3.942-11.785" stroke-width="1.2" stroke="#000" stroke-miterlimit="10" fill="none"/><path d="M154.656 93.39l-3.937-11.785" stroke-width="1.2" stroke="#00f" stroke-miterlimit="10" fill="none"/><path d="M147.664 69.344h9v14h-9zm0 0" fill="#fff"/><use xlink:href="#a" x="147.664" y="80.482" fill="#00f"/><path d="M205.824 125.422l23.262 20.59M212.996 122.008l18.61 16.472M212.027 94.98l-6.203 30.442M229.086 146.012l29.46-9.848M258.547 136.164l6.203-30.44M252.004 131.66l4.965-24.35M264.75 105.723l-23.262-20.59M241.488 85.133l-29.46 9.847M240.86 93.047l-23.57 7.88M186.21 164.73l-20.593 23.262M189.625 171.902l-16.473 18.61M216.648 170.934l-30.437-6.204M165.617 187.992l9.852 29.46M175.47 217.453l30.436 6.203M179.973 210.914l24.35 4.96M205.906 223.656l20.594-23.26M226.5 200.395l-9.852-29.46M218.582 199.766l-7.88-23.57" stroke-width="1.2" stroke="#000" stroke-miterlimit="10" fill="none"/><path d="M94.176 134.375l-11.63-10.297" stroke-width="1.2" stroke="#00f" stroke-miterlimit="10" fill="none"/><path d="M82.547 124.078l-11.633-10.293M87.973 164.816l3.1-15.222" stroke-width="1.2" stroke="#000" stroke-miterlimit="10" fill="none"/><path d="M91.074 149.594l3.102-15.22" stroke-width="1.2" stroke="#00f" stroke-miterlimit="10" fill="none"/><path d="M90.176 127.375h9v14h-9zm0 0" fill="#fff"/><use xlink:href="#a" x="90.176" y="138.514" fill="#00f"/><path d="M70.914 113.785l-29.46 9.848M41.453 123.633L35.25 154.07M35.25 154.07l23.262 20.594M58.512 174.664l29.46-9.848" stroke-width="1.2" stroke="#000" stroke-miterlimit="10" fill="none"/></g></svg>
